X:2
T:Alcyone
T:Deuxieme menuet pour les memes
C:Marin Marais
B:XVIIIeme
M:3/4
L:1/4
Q:C4=60
K:D
f e f | f2 f/g/ | a b2 | f>e d |
f e f | f2 f/g/ | a b/a/ g/f/ | e3 :|
|: e f d | e>f e | f d f | e2 e |
f f2 | B>c d | d A c3/4B/8c/8 | d3 :|
